X:4879
T:Out on the Ocean
O:england
M:6/8
L:1/8
Q:200
C:Trad Irish
R:jig
K:G
B3 BAG|BdB A2 B|GED G2 A|BAB GED|
B3 BAG|BdB A2 B|GED G2 A|BGG G2 z:|
efe edB|efe edB|deB def|gfe dBA|
G2 A B2 d|ege dBA|GED G2 A|BGG G2 z:||


